assets/block.svg

<svg fill="none" height="17" viewBox="0 0 17 17" width="17" xmlns="http://www.w3.org/2000/svg"><path clip-rule="evenodd" d="m15.3266 12.3831c.2425-.1281.3352-.4286.207-.6711-.0037-.0069-.0074-.0136-.0114-.0203v-6.5842c0-.07501-.0228-.14467-.0613-.20415-.0666-.21284-.2148-.39511-.418-.50253l-6.43392-3.400947c-.25094-.132643-.55122-.132643-.80216 0l-6.43392 3.400947c-.23622.12486-.39813.35084-.443927.60847-.008743.0315-.013383.06442-.013383.09821v6.229c-.001479.0718-.004117.1501-.006833.2306l-.000097.0029c-.005817.1724-.012027.3565-.006779.4976.002605.0701.008188.136.020151.1866.005795.0244.014907.0536.031376.0788.013412.0205.038325.0473.076142.0575l6.90946 3.6523c.1452.0768.31896.0768.46417 0zm.1516-.3383c-.0273.1034-.0962.1956-.1982.2495l-6.92345 3.6597c-.11597.0613-.25474.0613-.37071 0l-6.92342-3.6597c-.078082.0011-.065393-.3751-.05362-.7242.00273-.0808.0054-.1601.00689-.2329v-6.23009c0-.02324.00301-.0459.00873-.06771-.00578.02193-.00883.04472-.00883.0681v6.2301c-.00149.0728-.00417.1521-.00689.2329-.011775.3491-.024464.7253.05361.7242l6.92343 3.6597c.11597.0613.25474.0613.3707 0l6.92346-3.6597c.1022-.054.171-.1463.1983-.2499zm-7.7384 2.7692-5.86596-3.1007v-5.53017l5.86596 3.10072zm.1.1656v-5.756l-6.06586-3.20638v-.00045l6.06596 3.20644v5.75639zm.85824-.2161v-5.49129l5.86596-3.10073v5.49132zm-.0999-5.5516v-.00034l6.06596-3.20644v5.71748l-.0001.0001v-5.71719zm6.04336-4.05249.0004-.00022-6.4339-3.40095-6.43392 3.40095.00032.00017 6.4335-3.40072zm-6.4336 3.288-6.21994-3.28783 6.21994-3.28783 6.2199 3.28783z" fill="#fff" fill-rule="evenodd"/></svg>

<svg width="17" height="17" viewBox="0 0 17 17" fill="none" xmlns="http://www.w3.org/2000/svg">
<path fill-rule="evenodd" clip-rule="evenodd" d="M15.3266 12.3831C15.5691 12.255 15.6618 11.9545 15.5336 11.712C15.5299 11.7051 15.5262 11.6984 15.5222 11.6917V5.1075C15.5222 5.03249 15.4994 4.96283 15.4609 4.90335C15.3943 4.69051 15.2461 4.50824 15.0429 4.40082L8.60898 0.999873C8.35804 0.86723 8.05776 0.86723 7.80682 0.999873L1.3729 4.40082C1.13668 4.52568 0.97477 4.75166 0.928973 5.00929C0.92023 5.04079 0.91559 5.07371 0.91559 5.1075V11.3365C0.914111 11.4083 0.911473 11.4866 0.908757 11.5671L0.90866 11.57C0.902843 11.7424 0.896633 11.9265 0.901881 12.0676C0.904486 12.1377 0.910069 12.2036 0.922032 12.2542C0.927827 12.2786 0.936939 12.3078 0.953408 12.333C0.96682 12.3535 0.991733 12.3803 1.02955 12.3905L7.93901 16.0428C8.08421 16.1196 8.25797 16.1196 8.40318 16.0428L15.3266 12.3831ZM15.4782 12.0448C15.4509 12.1482 15.382 12.2404 15.28 12.2943L8.35655 15.954C8.24058 16.0153 8.10181 16.0153 7.98584 15.954L1.06242 12.2943C0.984338 12.2954 0.997027 11.9192 1.0088 11.5701C1.01153 11.4893 1.0142 11.41 1.01569 11.3372V5.10711C1.01569 5.08387 1.0187 5.06121 1.02442 5.0394C1.01864 5.06133 1.01559 5.08412 1.01559 5.1075V11.3376C1.0141 11.4104 1.01142 11.4897 1.0087 11.5705C0.996925 11.9196 0.984236 12.2958 1.06231 12.2947L7.98574 15.9544C8.10171 16.0157 8.24048 16.0157 8.35644 15.9544L15.2799 12.2947C15.3821 12.2407 15.4509 12.1484 15.4782 12.0448ZM7.7398 14.814L1.87384 11.7133V6.18313L7.7398 9.28385V14.814ZM7.8398 14.9796V9.2236L1.77394 6.01722V6.01677L7.8399 9.22321V14.9796L7.8398 14.9796ZM8.69804 14.7635V9.27221L14.564 6.17148V11.6628L8.69804 14.7635ZM8.59814 9.2119V9.21156L14.6641 6.00512V11.7226L14.664 11.7227V6.00551L8.59814 9.2119ZM14.6415 5.15941L14.6419 5.15919L8.208 1.75824L1.77408 5.15919L1.7744 5.15936L8.2079 1.75864L14.6415 5.15941ZM8.2079 8.44741L1.98796 5.15958L8.2079 1.87175L14.4278 5.15958L8.2079 8.44741Z" fill="white"/>
</svg>
